X: 25
L:1/8
M:2/4
K:G
|:Gg e/f/g/d/|BB/A/ BA|Gb e/f/g/e/|a>b a2|Gg e/f/g/d/|BB/A/ Bd|e>d e/f/g/d/|BA G2:|
|:G/G/ g/g/ e/e/g/g/|BB/c/ BA|G/G/ g/g/ e/e/g/g/|a>b a2|G/G/ g/g/ e/e/g/g/|BB/A/ Bd|e>d e/f/g/d/|BA G2:|



